static/logos/usabilityHub-glyph-color.svg

<svg width="50" height="51" viewBox="0 0 50 51" fill="none" xmlns="http://www.w3.org/2000/svg">
<g clip-path="url(#clip0_1_519)">
<path d="M12.9312 2.75582C14.5717 2.41537 18.3161 1.65751 21.2515 1.07099C27.8554 -0.248675 31.5076 -0.341372 33.8121 0.751887C35.9251 1.7547 47.8537 15.7558 49.0655 18.6553C49.5262 19.7581 49.9031 21.4761 49.9031 22.4738C49.9031 24.8334 44.4734 41.8862 43.1138 43.7963C41.288 46.362 39.3588 47.1384 30.6222 48.8233C20.3104 50.8115 18.2442 50.8637 15.5571 49.2047C13.1104 47.694 1.84976 34.38 0.70819 31.648C-0.573833 28.5789 -0.285069 26.6497 2.99021 16.4171C6.54809 5.30301 7.59696 3.862 12.9312 2.75582Z" fill="#DD6461"/>
<path d="M35.1574 19.1678C33.6153 18.4656 33.2012 15.9128 34.4293 14.6847C35.3636 13.7504 36.5709 13.8426 37.7838 14.9403C39.1215 16.151 39.0866 17.5195 37.6855 18.7881C36.7552 19.6296 36.3158 19.6959 35.1574 19.1678Z" fill="#613433"/>
<path d="M13.8084 23.5611C11.5657 23.5611 10.3786 20.7549 11.9545 19.1791C12.3253 18.8083 13.1595 18.5049 13.8084 18.5049C16.0511 18.5049 17.2382 21.3111 15.6623 22.887C15.2915 23.2578 14.4573 23.5611 13.8084 23.5611Z" fill="#613433"/>
<path fill-rule="evenodd" clip-rule="evenodd" d="M25.5144 26.3723C19.0459 27.6678 18.0234 28.1982 18.0234 30.2572C18.0234 32.3403 21.5656 35.6167 24.3903 36.1471C26.6251 36.5662 30.3779 35.7561 32.4291 34.4122C35.3083 32.5257 36.9937 27.5875 35.3268 25.9207C34.4184 25.0122 31.6746 25.1386 25.5144 26.3723ZM26.2819 35.3465C30.7453 35.3207 35.5234 31.8319 33.6549 29.9628C32.615 28.9235 28.3043 28.5257 25.9094 29.2482C23.4189 29.9993 20.8324 31.837 20.8324 32.8544C20.8324 34.001 23.8066 35.3611 26.2819 35.3465Z" fill="#613433"/>
<path d="M33.6584 29.9628C35.5269 31.8319 30.7489 35.3207 26.2854 35.3465C23.8101 35.3611 20.8359 34.001 20.8359 32.8544C20.8359 31.8369 23.4225 29.9993 25.9129 29.2482C28.3078 28.5257 32.6185 28.9235 33.6584 29.9628Z" fill="#AB4F4F"/>
</g>
<defs>
<clipPath id="clip0_1_519">
<rect width="50" height="50.5618" fill="white"/>
</clipPath>
</defs>
</svg>

<svg xmlns="http://www.w3.org/2000/svg" width="62.745" height="64" fill="none" viewBox="0 0 50 51"><g clip-path="url(#a)"><path fill="#DD6461" d="M12.931 2.756c1.64-.34 5.385-1.098 8.32-1.685 6.604-1.32 10.257-1.412 12.561-.32 2.113 1.004 14.042 15.005 15.254 17.904.46 1.103.837 2.821.837 3.819 0 2.36-5.43 19.412-6.79 21.322-1.825 2.566-3.754 3.342-12.49 5.027-10.313 1.989-12.379 2.04-15.066.382C13.11 47.694 1.85 34.38.708 31.648c-1.282-3.07-.993-4.998 2.282-15.23C6.548 5.302 7.597 3.861 12.931 2.755Z"/><path fill="#613433" d="M35.157 19.168c-1.542-.702-1.956-3.255-.728-4.483.935-.935 2.142-.842 3.355.255 1.337 1.211 1.303 2.58-.099 3.848-.93.842-1.37.908-2.528.38ZM13.808 23.561c-2.242 0-3.43-2.806-1.854-4.382.371-.37 1.205-.674 1.854-.674 2.243 0 3.43 2.806 1.854 4.382-.37.37-1.205.674-1.854.674Z"/><path fill="#613433" fill-rule="evenodd" d="M25.514 26.372c-6.468 1.296-7.49 1.826-7.49 3.885 0 2.083 3.542 5.36 6.366 5.89 2.235.42 5.988-.39 8.04-1.735 2.878-1.886 4.564-6.825 2.897-8.491-.909-.909-3.652-.782-9.813.451Zm.768 8.974c4.463-.025 9.241-3.514 7.373-5.383-1.04-1.04-5.35-1.437-7.746-.715-2.49.751-5.077 2.589-5.077 3.606 0 1.147 2.975 2.507 5.45 2.492Z" clip-rule="evenodd"/><path fill="#AB4F4F" d="M33.658 29.963c1.869 1.869-2.91 5.358-7.373 5.383-2.475.015-5.45-1.345-5.45-2.492 0-1.017 2.587-2.855 5.078-3.606 2.395-.722 6.705-.325 7.745.715Z"/></g><defs><clipPath id="a"><path fill="#fff" d="M0 0h50v50.562H0z"/></clipPath></defs></svg>
